icons/24x24_stats_filled.svg

<svg xmlns="http://www.w3.org/2000/svg" width="24" height="24" viewBox="0 0 24 24">
  <path d="M15,4 L20,4 L20,18 L15,18 L15,4 Z M10,10 L14,10 L14,18 L10,18 L10,10 Z M4,9 L9,9 L9,18 L4,18 L4,9 Z M3,18 L21,18 C21.5522847,18 22,18.4477153 22,19 C22,19.5522847 21.5522847,20 21,20 L3,20 C2.44771525,20 2,19.5522847 2,19 C2,18.4477153 2.44771525,18 3,18 Z"/>
</svg>

<svg width="24" height="24" fill="none" xmlns="http://www.w3.org/2000/svg"><path d="M15 4h5v14h-5V4Zm-5 6h4v8h-4v-8ZM4 9h5v9H4V9Zm-1 9h18a1 1 0 1 1 0 2H3a1 1 0 1 1 0-2Z" fill="#000"/></svg>
